svg/media/notification_off_fill.svg

<?xml version="1.0" encoding="UTF-8"?>
<svg width="24px" height="24px" viewBox="0 0 24 24" version="1.1" xmlns="http://www.w3.org/2000/svg" xmlns:xlink="http://www.w3.org/1999/xlink">
    <title>notification_off_fill</title>
    <g id="页面-1" stroke="none" stroke-width="1" fill="none" fill-rule="evenodd">
        <g id="Media" transform="translate(-576.000000, -144.000000)" fill-rule="nonzero">
            <g id="notification_off_fill" transform="translate(576.000000, 144.000000)">
                 <path d="M24,0 L24,24 L0,24 L0,0 L24,0 Z M12.5934901,23.257841 L12.5819402,23.2595131 L12.5108777,23.2950439 L12.4918791,23.2987469 L12.4918791,23.2987469 L12.4767152,23.2950439 L12.4056548,23.2595131 C12.3958229,23.2563662 12.3870493,23.2590235 12.3821421,23.2649074 L12.3780323,23.275831 L12.360941,23.7031097 L12.3658947,23.7234994 L12.3769048,23.7357139 L12.4804777,23.8096931 L12.4953491,23.8136134 L12.4953491,23.8136134 L12.5071152,23.8096931 L12.6106902,23.7357139 L12.6232938,23.7196733 L12.6232938,23.7196733 L12.6266527,23.7031097 L12.609561,23.275831 C12.6075724,23.2657013 12.6010112,23.2592993 12.5934901,23.257841 L12.5934901,23.257841 Z M12.8583906,23.1452862 L12.8445485,23.1473072 L12.6598443,23.2396597 L12.6498822,23.2499052 L12.6498822,23.2499052 L12.6471943,23.2611114 L12.6650943,23.6906389 L12.6699349,23.7034178 L12.6699349,23.7034178 L12.678386,23.7104931 L12.8793402,23.8032389 C12.8914285,23.8068999 12.9022333,23.8029875 12.9078286,23.7952264 L12.9118235,23.7811639 L12.8776777,23.1665331 C12.8752882,23.1545897 12.8674102,23.1470016 12.8583906,23.1452862 L12.8583906,23.1452862 Z M12.1430473,23.1473072 C12.1332178,23.1423925 12.1221763,23.1452606 12.1156365,23.1525954 L12.1099173,23.1665331 L12.0757714,23.7811639 C12.0751323,23.7926639 12.0828099,23.8018602 12.0926481,23.8045676 L12.108256,23.8032389 L12.3092106,23.7104931 L12.3186497,23.7024347 L12.3186497,23.7024347 L12.3225043,23.6906389 L12.340401,23.2611114 L12.337245,23.2485176 L12.337245,23.2485176 L12.3277531,23.2396597 L12.1430473,23.1473072 Z" id="MingCute" fill-rule="nonzero"></path>
                <path d="M15.0001,19 C15.0001,20.0543909 14.1841589,20.9181678 13.1493537,20.9945144 L13.0001,21 L11.0001,21 C9.94570909,21 9.0819049,20.18415 9.00555574,19.1492661 L9.00007,19 L15.0001,19 Z M12.0002,2 C15.8662,2 19.0002,5.13401 19.0002,9 L19.0002,12.7639 L20.8222,16.4081 C21.1879,17.1395 20.6561,18 19.8384,18 L19.4143,18 L20.4854,19.071 C20.8759,19.4616 20.8759,20.0947 20.4854,20.4853 C20.0949,20.8758 19.4617,20.8758 19.0712,20.4853 L3.51482,4.92891 C3.12429,4.53838 3.12429,3.90522 3.51482,3.51469 C3.90534,3.12417 4.53851,3.12417 4.92903,3.51469 L6.32105,4.90672 C7.59238,3.14594 9.66245,2 12.0002,2 Z M5.02325,8.42729 L14.596,18 L4.16197,18 C3.34425,18 2.8124,17.1395 3.1781,16.4081 L5.00016,12.7639 L5.00016,9 C5.00016,8.80718 5.00796,8.61618 5.02325,8.42729 Z" id="形状" fill="#09244B"></path>
            </g>
        </g>
    </g>
</svg>

<svg xmlns="http://www.w3.org/2000/svg" width="24" height="24"><g fill="none" fill-rule="nonzero"><path d="M24 0v24H0V0h24ZM12.593 23.258l-.011.002-.071.035-.02.004-.014-.004-.071-.035c-.01-.004-.019-.001-.024.005l-.004.01-.017.428.005.02.01.013.104.074.015.004.012-.004.104-.074.012-.016.004-.017-.017-.427c-.002-.01-.009-.017-.017-.018Zm.265-.113-.013.002-.185.093-.01.01-.003.011.018.43.005.012.008.007.201.093c.012.004.023 0 .029-.008l.004-.014-.034-.614c-.003-.012-.01-.02-.02-.022Zm-.715.002a.023.023 0 0 0-.027.006l-.006.014-.034.614c0 .012.007.02.017.024l.015-.002.201-.093.01-.008.004-.011.017-.43-.003-.012-.01-.01-.184-.092Z"/><path fill="#09244B" d="M15 19a2 2 0 0 1-1.85 1.995L13 21h-2a2 2 0 0 1-1.994-1.85L9 19h6ZM12 2a7 7 0 0 1 7 7v3.764l1.822 3.644A1.1 1.1 0 0 1 19.838 18h-.424l1.071 1.071a1 1 0 0 1-1.414 1.414L3.515 4.93a1 1 0 1 1 1.414-1.414l1.392 1.392A6.99 6.99 0 0 1 12.001 2ZM5.023 8.427 14.596 18H4.162a1.1 1.1 0 0 1-.984-1.592L5 12.764V9c0-.193.008-.384.023-.573Z"/></g></svg>
